findly-builder/apps/searchassist/src/assets/icons/content/latest-content-icons/blue-return.svg

<svg width="13" height="14" viewBox="0 0 13 14" fill="none" xmlns="http://www.w3.org/2000/svg">
<path d="M6.25843 0.118192C6.05458 -0.0499898 5.7524 -0.0386747 5.56178 0.152069L5.52814 0.189088C5.35996 0.392942 5.37127 0.695125 5.56202 0.885744L6.52987 1.85299C3.19603 1.87843 0.5 4.58842 0.5 7.9264C0.5 11.2802 3.2216 14 6.57722 14C9.93284 14 12.6544 11.2802 12.6544 7.9264C12.6544 7.63989 12.4222 7.40762 12.1356 7.40762C11.8491 7.40762 11.6169 7.63989 11.6169 7.9264C11.6169 10.707 9.35996 12.9624 6.57722 12.9624C3.79448 12.9624 1.53757 10.707 1.53757 7.9264C1.53757 5.16263 3.76727 2.91768 6.52679 2.89063L5.56202 3.85503L5.52836 3.89203C5.36004 4.09578 5.37116 4.39797 5.56178 4.58871C5.76431 4.79138 6.09279 4.79148 6.29545 4.58895L8.14826 2.73735L8.18194 2.70033C8.35032 2.49649 8.3391 2.19414 8.14826 2.00343L6.29545 0.15183L6.25843 0.118192Z" fill="#0D6EFD"/>
</svg>

<svg width="13" height="14" fill="none" xmlns="http://www.w3.org/2000/svg"><path d="M6.258.118a.519.519 0 0 0-.696.034L5.528.19a.519.519 0 0 0 .034.697l.968.967A6.076 6.076 0 0 0 .5 7.926 6.076 6.076 0 0 0 6.577 14a6.076 6.076 0 0 0 6.077-6.074.519.519 0 1 0-1.037 0 5.039 5.039 0 0 1-5.04 5.036 5.039 5.039 0 0 1-5.04-5.036 5.039 5.039 0 0 1 4.99-5.035l-.965.964-.034.037a.519.519 0 0 0 .767.697l1.853-1.852.034-.037a.519.519 0 0 0-.034-.697L6.295.152 6.258.118Z" fill="#0D6EFD"/></svg>
